X: 1
T: The Winter Union
R: waltz
M: 3/4
L: 1/8
K: Amaj
CF Ac|:"F#m" f2-fe dc|"Bm" d2- dc Ac|"C#m/E" (3efe dd c-f|"Bm" B3 FAc|
"D" d2-dc BA|"Bm" {c}B3 A Gc|1 "F#m" F2 A2 (3GAG|F3 C (3FAc:|2 "D" F2 B2 "E" AG|"Bm" F2 (B2 d2)|
|:"Bm"g2 f2 e2|f3 F Bd|"F#m" f2 e2 a2|c3 CDE|"D" F3-D (3EFG|
"E" B2 A2G2|1 "Bm" {B}A4 G2|"F#m" F3 F "Bm" Bd:|2 "Bm/D" {B}A4 G2|"F#m"F3 C (3FAc||

